src/assets/cube.svg

<svg width="16" height="16" viewBox="0 0 16 16" fill="none" xmlns="http://www.w3.org/2000/svg">
<g clip-path="url(#clip0_1_293)">
<path d="M8.08142 0L1.08142 4V12L8.08142 16L15.0814 12V4L8.08142 0ZM13.0901 4.4L8.00809 7.23467L3.11542 4.37333L8.08142 1.53333L13.0901 4.4ZM2.41475 5.508L7.33342 8.38267V14.0373L2.41475 11.226V5.508ZM8.66675 14.1293V8.39133L13.7481 5.55733V11.224L8.66675 14.1293Z" fill="#7F858D"/>
</g>
<defs>
<clipPath id="clip0_1_293">
<rect width="16" height="16" fill="white"/>
</clipPath>
</defs>
</svg>

<svg width="16" height="16" fill="none" xmlns="http://www.w3.org/2000/svg">
  <g clip-path="url(#prefix__clip0_1_293)">
    <path
      d="M8.081 0l-7 4v8l7 4 7-4V4l-7-4zm5.01 4.4L8.007 7.235 3.115 4.373l4.966-2.84 5.01 2.867zM2.414 5.508l4.918 2.875v5.654l-4.918-2.811V5.508zm6.252 8.621V8.391l5.081-2.834v5.667l-5.081 2.905z"
      fill="currentColor" />
  </g>
</svg>
